X: 11558
T: Edgecombe
R: jig
M: 6/8
K: Edorian
"Em"~EDE Bcd|EBc dec|~EDE Bcd|efg "D"aga|
~EDE Bcd|EBc dec|"D"dBd "C"efd|1 "Em"eBGE2D:|2 "Em"eBGE2G||
|:"Am"AAE "Em"BBE|"A"ccE "D"ddE|"Em"ede fef|"D"gfef2G|
"Am"AAE "Em"BBE|"A"ccE "D"ddE|"Em"BeB "D"AcA|1 "Em"BGFE2G:|2 "Em"BGFE2D||

